X: 85
T: No_181.krn
N: Derived from No_181.krn
%%abc-version 2.0
%%abcx-abcm2ps-target-version 5.9.1 (29 Sep 2008)
%%abc-creator hum2abc beta
%%abcx-conversion-date 2019/03/15 08:29:13
%%humdrum-veritas 1030030913
%%humdrum-veritas-data 665403544
%%linebreak <none>
%%barnumbers 0
L: 1/8
M: 3/4
%%staves {1 2}
V: 1 clef=bass
V: 2 clef=bass
K: E
[V:1] [K:clef=bass][M:3/4]C3/C/ C3/C/ D3/C/ ||  
[V:2] [K:clef=bass][M:3/4](3!accent!G,, z G,, (3!accent!G,, z G,, (3!accent!G,, z G,, ||  
[V:1] [M:2/4]C2C3/C/ ||  
[V:2] [M:2/4]z4 ||  
[V:1] [M:3/4]G,3/G,/ G,3/G,/ A,3/G,/ ||  
[V:2] [M:3/4]z6 ||  
[V:1] [M:2/4]G,2G,3/G,/ ||  
[V:2] [M:2/4]z4 ||  
[V:1] [M:3/4]F,3/F,/ F,3/F,/ G,3/F,/ | 
[V:2] [M:3/4]z6 | 
[V:1] E,4C,2 ||  
[V:2] z6 ||  
[V:1] [M:2/4]F,3/F,/ F,3/F,/ | 
[V:2] [M:2/4]z4 | 
[V:1] F,3/E,/E,2 ||  
[V:2] z4 ||  
[V:1] [M:3/4]C,3/C,/C,4 ||  
[V:2] [M:3/4]z6 ||  
[V:1] [M:2/4]C,4 ||  
[V:2] [M:2/4]z4 ||  
[V:1] [M:3/4]C,3/G,/ G,3/G,/ B,3/G,/ ||  
[V:2] [M:3/4]z6 ||  
[V:1] [M:2/4]G,4 ||  
[V:2] [M:2/4]z4 ||  
[V:1] [M:3/4]G,3/F,/ F,3/F,/ G,3/F,/ | 
[V:2] [M:3/4]z6 | 
[V:1] E,4D,2 ||  
[V:2] z6 ||  
[V:1] [M:2/4]F,3/F,/ F,3/F,/ | 
[V:2] [M:2/4]z4 | 
[V:1] F,2E,2 ||  
[V:2] z4 ||  
[V:1] [M:3/4]C,3/C,/C,4 ||  
[V:2] [M:3/4]z6 ||  
[V:1] [M:2/4]C,4 ||  
[V:2] [M:2/4]z4 ||  
[V:1] [M:3/4]C3/C/ C3/C/ D3/C/ ||  
[V:2] [M:3/4]z6 ||  
[V:1] [M:2/4]C2C3/C/ ||  
[V:2] [M:2/4]z4 ||  
[V:1] [M:3/4]G,3/G,/ G,3/G,/ A,3/G,/ ||  
[V:2] [M:3/4]z6 ||  
[V:1] [M:2/4]G,2G,3/G,/ ||  
[V:2] [M:2/4]z4 ||  
[V:1] [M:3/4]F,3/F,/ F,3/F,/ G,3/F,/ | 
[V:2] [M:3/4]z6 | 
[V:1] E,4C,2 ||  
[V:2] z6 ||  
[V:1] [M:2/4]F,3/F,/ F,3/F,/ | 
[V:2] [M:2/4]z4 | 
[V:1] F,3/E,/E,2 ||  
[V:2] z4 ||  
[V:1] [M:3/4]C,3/C,/C,4 ||  
[V:2] [M:3/4]z6 ||  
[V:1] [M:2/4]C,4 |]  
[V:2] [M:2/4]z4 |]  



